docs/assets/images/calc-svg/chamfer-08.svg

<svg width="76" height="44" viewBox="0 0 76 44" fill="none" xmlns="http://www.w3.org/2000/svg">
<path d="M74.8889 25.2083L33.7639 43L1.68056 35.125L1 12.9583L45.5278 1L56.4167 2.58646C56.5315 5.09544 58.3076 7.21889 60.7567 7.77552L63.0278 8.29167V11.7917L69.1744 14.8177C73.0728 16.7369 75.3559 20.8883 74.8889 25.2083Z" fill="#D2D2D2"/>
<path d="M33.7639 43L74.8889 25.2083C75.3559 20.8883 73.0728 16.7369 69.1744 14.8177L63.0278 11.7917M33.7639 43L1.68056 35.125L1 12.9583M33.7639 43C34.12 37.8358 31.4655 32.9295 26.948 30.4022L20.4444 26.7639M1 12.9583L45.5278 1L56.4167 2.58646M1 12.9583L12.9583 15.2648M12.9583 15.2648L56.4167 2.58646M12.9583 15.2648C13.0171 18.102 14.7903 20.6203 17.4416 21.632L20.4444 22.7778M20.4444 22.7778V26.7639M20.4444 22.7778L63.0278 8.29167M20.4444 26.7639L63.0278 11.7917M56.4167 2.58646C56.5315 5.09544 58.3076 7.21889 60.7567 7.77552L63.0278 8.29167M63.0278 11.7917V8.29167" stroke="#838383"/>
</svg>

<svg width="76" height="44" fill="none" xmlns="http://www.w3.org/2000/svg"><path d="M74.889 25.208L33.764 43 1.68 35.125 1 12.958 45.528 1l10.889 1.586a5.583 5.583 0 004.34 5.19l2.27.516v3.5l6.147 3.026a10.343 10.343 0 015.715 10.39z" fill="#D2D2D2"/><path d="M33.764 43l41.125-17.792a10.343 10.343 0 00-5.715-10.39l-6.146-3.026M33.764 43L1.68 35.125 1 12.958M33.764 43a13.38 13.38 0 00-6.816-12.598l-6.504-3.638M1 12.958L45.528 1l10.889 1.586M1 12.958l11.958 2.307m0 0L56.417 2.586M12.958 15.265a6.97 6.97 0 004.484 6.367l3.002 1.146m0 0v3.986m0-3.986L63.028 8.292M20.444 26.764l42.584-14.972m-6.611-9.206a5.583 5.583 0 004.34 5.19l2.27.516m0 3.5v-3.5" stroke="#838383"/></svg>
